X:75
T: I Furnished Up My House
T: Chuir M\'e Feisteas ar mo Theachsa
S: "Ceol Rince na hEireann" 1/205
Z: B.Black
L: 1/8
M: C|
R: hornpipe
K: Ador
A|EAAB cBcd|eaag (3efe dB|c2 Ac B2 G2|Bd (3d^cd AGED|
EAAB cBcd|eaag e2 dB|c2 Ac BAGB|A2 (3AAA A3 :|
d|ea (3aga aged|ea (3aga a2 af|g2 g2 aged|egfa gedB|
A3B cBcd|eaag e2 dB|c2 Ac BAGB|A2 (3AAA A3 :|
